X: 0
T: Granny Will Your Dog Bite  v.1
P: piffero primo a0047
O: safd 054
%R: march
F: http://ancients.sudburymuster.org/mus/ssp/pdf/matthewsF.pdf
Z: 2019 John Chambers <jc:trillian.mit.edu>
M: 2/4
L: 1/16
K: D
A2 |\
d3A F2A2 | G2B2 F2A2 | dcdA F2A2 | B2c2 d3d |\
d3A F2A2 | G2B2 F2A2 | dcdA F2A2 | B2c2 d2 :|
|: z2 |\
dcde f2a2 | g2f2 e2c2 | dcde f2a2 | g2f2 e2fg |\
abaf g2e2 | f2d2 e2f2 | dcdA F2A2 | B2c2 d2 :|


